X: 41
T:Denis Murphy's Slide
S:Trad, arr Phil Rowe
R: Slide
N: page 13
N: hexatonic
M:12/8
K:Dmix
B|"D"A2D FED F2A A2f|"G"gfe "D"f2d "G"e2d "A7"BdB|\
"D"A2D FED F2A A2f|"A7" a2f efe "D"d3 d2::
A|"D"d2e fef "G"gfe "D"f2f|"G"gfe "D"fed "G"e2d "A7"B2A|\
"D"d2e fef "G"gfe "D"f2g| "A7"a2f efe "D"d3 d2:|
